!!!COM: Robert Franz
!!!CNT: Deutscher
!!!TXO: Deutsche 
!!!OTL: Die stille Wasserrose
!!!OPS: Op. 1
!!!ONM: No. 3
!!!ONB: Original key: Bb major
!!!LYR: E. Geibel
!!!ENC: Brian Bice
!!!YOR: Vocal Album, G. Schirmer, Inc., 1907
!!!ODT: 1843/
!!NB: Vocal melody and text only encoded.
**kern	**silbe
*clefG2	*
*k[f#]	*
*M2/4	*
=2	=2
4r	.
8r	.
{8d	{Die
=3	=3
8.g	stil-
16g	-le
8d	Was-
8d	-ser-
=4	=4
(8.e-	-ro-
16fn)	|
8g}	-se}
8r	.
=5	=5
{8fn	{steigt
16g	aus
16a-	dem
8.g	blau-
16fn	-en
=6	=6
4dd}	See,}
8r	.
{8g	{die
=7	=7
8.cc	Bla2t-
16cc	-ter
8b-	flim-
16fn	-mern
16g	und
=8	=8
4a-	blit-
8g}	-zen,}
16r	.
{16g	{der
=9	=9
(8fn	Kelch
16g)	|
16a-	ist
(16g	weiss
8b-)	|
16a-	wie
=10	=10
4g}	Schnee.}
4r	.
=11	=11
4r	.
8r	.
{8g	{Da
=12	=12
8.g	giesst
16g	der
8d	Mond
8d	vom
=13	=13
(8.e-	Him-
16fn)	|
8g}	-mel}
8r	.
=14	=14
{8fn	{all'
16fn	sei-
16fn	-nen
8g	gold'-
8a-	-nen
=15	=15
4b-}	Schein,}
4r	.
=16	=16
{8cc	{giesst
16g	al-
16a-	-le
(8b-	sei-
16fn)	|
16g	-ne
=17	=17
4a-	Strah-
8g}	-len}
16r	.
{16g	{in
=18	=18
(8fn	ih-
16g)	|
16a-	-ren
(16g	Schooss
8b-)	|
16a-	hin-
=19	=19
4g}	-ein.}
4r	.
=20	=20
4r	.
8r	.
{8g	{Im
=21	=21
8.g	Was-
16g	-ser
8d	um
8d	die
=22	=22
4e	Blu-
8e}	-me}
8r	.
=23	=23
{8f#	{krei-
16f#	-set
16f#	ein
8b	wei-
8dd	-sser
=24	=24
4cc#}	Schwan,}
8r	.
{8f#	{er
=25	=25
8.b	singt
16b	so
8.a	su2ss,
16a	so
=26	=26
4dd	lei-
8cc#}	-se,}
{8ee	{und
=27	=27
8.a#	schaut
16a#	die
8.dd	Blu-
16b	-me,
=28	=28
4.f#}	an.}
8r	.
=29	=29
4r	.
8r	.
{8d	{Er
=30	=30
8.b	singt
16g	so
8.d	su2ss,
16g	so
=31	=31
4f#	lei-
8e}	-se,}
{8e	{und
=32	=32
8.f#	will
16f#	im
8b	Sin-
16b	-gen
16b	ver-
=33	=33
4dd}	-geh'n;}
8r	.
{8g	{o
=34	=34
8.cc	Blu-
16cc	-me,
8.b-	wei-
16b-	-sse
=35	=35
4a-	Blu-
8g}	-me}
8r	.
=36	=36
{8fn	{kannst
16g	du
16a-	das
8.g	Leid
16fn	ver-
=37	=37
[2dd	-steh'n?
=38	=38
4dd]}	|}
4r	.
*-	*-
